img/asset-bike.svg

<svg xmlns="http://www.w3.org/2000/svg" version="1.1" xmlns:xlink="http://www.w3.org/1999/xlink" preserveAspectRatio="none" x="0px" y="0px" width="750px" height="300px" viewBox="0 0 750 300">
<defs>
<g id="Layer0_0_FILL">
<path fill="#FFFFFF" stroke="none" d="
M 564.35 178.25
Q 561.9 179.8 560.45 182.25 559.65 183.6 559.25 185.2 558.9 186.75 558.9 188.65 558.9 191.25 559.7 193.2 560.6 195.25 562.05 196.55 563.45 198 565.3 198.9 567 199.85 568.95 200.4 570.8 201.05 572.55 201.3
L 581.1 203.15 582.55 203.7
Q 583.9 204.35 584.65 205.2 585.5 206.2 585.5 207.45 585.5 208.55 585 209.5 584.45 210.5 583.35 211.35 582.15 212.25 580.7 212.65 579.15 213.2 577.1 213.2 573.15 213.2 569.8 211.55 567.2 210.35 564.5 208.65 563.85 208.25 563.1 208.4 562.4 208.5 562 209.15
L 559.45 212.85
Q 559.05 213.5 559.15 214.2 559.3 214.95 559.95 215.35
L 562.4 217 566.5 219
Q 568.75 220 571.2 220.4 573.8 220.95 577.25 220.95 580.85 220.95 584 220.1 587 219.3 589.3 217.6 591.5 216 592.7 213.45 593.9 210.9 593.9 207.55 593.9 204.6 593 202.5 592.25 200.5 590.7 199
L 590 198.35 587.55 196.75 583.9 195.3 570.65 192
Q 569.15 191.4 568.2 190.5 567.25 189.65 567.25 188.3 567.25 187 568.05 186.05
L 568.95 185.2 570.1 184.5 572.7 183.65 575.15 183.4
Q 578.4 183.4 581.2 184.5 583.3 185.3 585.65 186.8 586.3 187.25 587.05 187.1 587.8 187 588.25 186.35
L 590.75 182.75
Q 591.25 182.1 591.15 181.35 591.05 180.65 590.35 180.15
L 586.3 177.8 582.5 176.4 580.4 176
Q 578.25 175.6 575.5 175.6 572.6 175.6 569.8 176.2 566.7 176.85 564.35 178.25
M 679.25 195.9
Q 679.25 195.15 679.6 194.95 680 194.8 680.6 195.25
L 706.85 219.7
Q 707.4 220.15 708.2 220 708.9 219.85 708.9 219.1
L 708.9 178.2
Q 708.9 177.4 708.4 176.85 707.85 176.35 707.05 176.35
L 702.4 176.35
Q 701.6 176.35 701.05 176.85 700.55 177.4 700.55 178.2
L 700.55 200.95
Q 700.55 201.7 700.15 201.9 699.75 202.1 699.15 201.55
L 672.85 176.7
Q 672.35 176.2 671.6 176.35 670.85 176.5 670.85 177.3
L 670.85 218.25
Q 670.85 219 671.35 219.55 671.95 220.1 672.65 220.1
L 677.35 220.1
Q 678.15 220.1 678.7 219.55 679.25 219 679.25 218.25
L 679.25 195.9
M 659.7 185.45
Q 659.85 184.75 659.35 184.1 658 182.35 656.25 180.85 654.55 179.4 652.5 178.25 650.05 176.85 647.3 176.2 644.6 175.5 641.6 175.5 636.9 175.5 632.8 177.3 628.75 179.1 625.55 182.15 624 183.7 622.75 185.5 621.55 187.3 620.65 189.35 618.85 193.65 618.85 198.25 618.85 202.9 620.65 207.05 622.4 211.05 625.55 214.2 627.1 215.8 628.9 217.05 630.7 218.25 632.8 219.15 636.9 220.95 641.6 220.95 645.85 220.95 649.75 219.5 653.65 218.05 656.55 215.5 658 214.2 659.25 212.75 660.45 211.2 661.4 209.45 662.35 207.75 662.9 205.85 663.45 203.9 663.65 201.75
L 663.7 200.4
Q 663.75 199.2 663.8 198 663.8 197.25 663.3 196.7 662.75 196.15 661.95 196.15
L 640.4 196.15
Q 639.65 196.15 639.1 196.7 638.55 197.25 638.55 198
L 638.55 201.85
Q 638.55 202.6 639.1 203.15 639.65 203.7 640.4 203.7
L 652.85 203.7
Q 653.65 203.7 654 204.2 654.4 204.7 654.05 205.4
L 652.85 207.55
Q 651.45 209.3 649.8 210.5 648.05 211.75 646 212.45 643.85 213.15 641.6 213.15 638.6 213.15 636.05 211.9 633.3 210.7 631.5 208.65 629.6 206.6 628.4 203.95 627.25 201.3 627.25 198.25 627.25 195.25 628.4 192.55 629.55 189.85 631.5 187.85 633.25 185.85 636.05 184.5 638.75 183.35 641.6 183.35 645.15 183.35 648.3 185.25
L 650.35 186.75 652.15 188.55
Q 652.65 189.1 653.45 189.25 654.15 189.45 654.85 189
L 658.9 186.55
Q 659.55 186.15 659.7 185.45
M 603.9 176.35
Q 603.1 176.35 602.6 176.85 602.1 177.4 602.1 178.2
L 602.1 218.25
Q 602.1 219 602.6 219.55 603.1 220.1 603.9 220.1
L 608.6 220.1
Q 609.4 220.1 609.95 219.55 610.5 219 610.5 218.25
L 610.5 178.2
Q 610.5 177.4 609.95 176.85 609.4 176.35 608.6 176.35
L 603.9 176.35
M 519.8 176.8
Q 519.3 177.35 519.3 178.1
L 519.3 218.25
Q 519.3 219 519.8 219.55 520.4 220.1 521.15 220.1
L 549.7 220.1
Q 550.5 220.1 551 219.55 551.55 219 551.55 218.25
L 551.55 214.4
Q 551.55 213.65 551 213.1 550.5 212.55 549.7 212.55
L 529.55 212.55
Q 528.75 212.55 528.2 212.05 527.7 211.5 527.7 210.7
L 527.7 204.1
Q 527.7 203.35 528.2 202.8 528.75 202.25 529.55 202.25
L 547 202.25
Q 547.8 202.25 548.3 201.7 548.9 201.2 548.9 200.4
L 548.9 196.5
Q 548.9 195.7 548.3 195.2 547.8 194.65 547 194.65
L 529.55 194.65
Q 528.75 194.65 528.2 194.1 527.7 193.6 527.7 192.8
L 527.7 185.55
Q 527.7 184.8 528.2 184.25 528.75 183.7 529.55 183.7
L 549.7 183.7
Q 550.5 183.7 551 183.15 551.55 182.6 551.55 181.85
L 551.55 178.1
Q 551.55 177.35 551 176.8 550.5 176.3 549.7 176.3
L 521.15 176.3
Q 520.4 176.3 519.8 176.8
M 504.95 181.75
Q 498.9 176.3 489.5 176.3
L 474.05 176.3
Q 473.25 176.3 472.75 176.8 472.25 177.35 472.25 178.1
L 472.25 218.25
Q 472.25 219 472.75 219.55 473.25 220.1 474.05 220.1
L 489.5 220.1
Q 491.8 220.1 493.95 219.75 496.05 219.4 498.05 218.75 499.95 218.05 501.7 217.05 503.4 216.05 504.95 214.65 508.25 211.65 509.8 207.55 510.65 205.4 511.05 203.1 511.45 200.8 511.45 198.15 511.45 195.7 511.05 193.4 510.65 191.05 509.8 188.85 508.15 184.8 504.95 181.75
M 489.55 183.8
Q 491.75 183.8 494.2 184.35 496.6 184.9 498.6 186.45 500.5 187.95 501.85 190.85 502.45 192.25 502.75 194.1
L 503.1 198.25
Q 503.1 202.85 501.85 205.6 500.5 208.5 498.6 210 496.6 211.6 494.3 212.15 491.85 212.65 489.55 212.65
L 482.4 212.65
Q 481.65 212.65 481.15 212.15 480.65 211.6 480.65 210.85
L 480.65 185.65
Q 480.65 184.9 481.15 184.35 481.65 183.8 482.4 183.8
L 489.55 183.8
M 431.15 176.8
Q 430.65 177.35 430.65 178.1
L 430.65 218.25
Q 430.65 219 431.15 219.55 431.75 220.1 432.5 220.1
L 450.85 220.1 456.2 219.45
Q 458.7 218.85 460.5 217.3 462.3 215.85 463.45 213.3 464.55 210.75 464.55 207.2 464.55 205.15 463.75 203.4 463 201.6 461.65 200.2 460.4 198.8 458.85 198
L 457.3 197.4
Q 456.85 197.3 456.6 197.15 456.7 197 457.1 196.85
L 458.5 196.15
Q 459.85 195.3 460.75 194.05 461.6 192.85 462.2 191.3 462.75 189.8 462.75 188.45 462.75 184.6 461.7 182.4 460.75 180 458.95 178.65 457.35 177.35 454.9 176.75
L 452.5 176.4 432.5 176.3
Q 431.75 176.3 431.15 176.8
M 440.9 194.1
Q 440.1 194.1 439.55 193.6 439.05 193.05 439.05 192.25
L 439.05 185.55
Q 439.05 184.8 439.55 184.25 440.1 183.7 440.9 183.7
L 449.9 183.7
Q 450.85 183.7 451.65 184.1
L 453.05 185.2
Q 453.55 185.7 454 186.75 454.35 187.65 454.35 188.6
L 454.05 190.55
Q 453.7 191.65 453.1 192.4 452.35 193.2 451.55 193.65 450.6 194.1 449.35 194.1
L 440.9 194.1
M 456.15 206.75
Q 456.15 207.95 455.75 208.85 455.4 209.85 454.6 210.75 453.8 211.7 452.9 212.15 452 212.65 450.85 212.65
L 440.9 212.65
Q 440.1 212.65 439.55 212.15 439.05 211.6 439.05 210.85
L 439.05 203.4
Q 439.05 202.6 439.55 202.1 440.1 201.55 440.9 201.55
L 449.95 201.55
Q 451.5 201.55 452.6 201.9 453.75 202.3 454.55 203.05 456.15 204.6 456.15 206.75
M 398.15 185.55
Q 398.15 184.8 398.65 184.25 399.2 183.7 400 183.7
L 420.15 183.7
Q 420.95 183.7 421.45 183.15 422 182.6 422 181.85
L 422 178.1
Q 422 177.35 421.45 176.8 420.95 176.3 420.15 176.3
L 391.6 176.3
Q 390.85 176.3 390.25 176.8 389.75 177.35 389.75 178.1
L 389.75 218.25
Q 389.75 219 390.25 219.55 390.85 220.1 391.6 220.1
L 420.15 220.1
Q 420.95 220.1 421.45 219.55 422 219 422 218.25
L 422 214.4
Q 422 213.65 421.45 213.1 420.95 212.55 420.15 212.55
L 400 212.55
Q 399.2 212.55 398.65 212.05 398.15 211.5 398.15 210.7
L 398.15 204.1
Q 398.15 203.35 398.65 202.8 399.2 202.25 400 202.25
L 417.45 202.25
Q 418.25 202.25 418.75 201.7 419.35 201.2 419.35 200.4
L 419.35 196.5
Q 419.35 195.7 418.75 195.2 418.25 194.65 417.45 194.65
L 400 194.65
Q 399.2 194.65 398.65 194.1 398.15 193.6 398.15 192.8
L 398.15 185.55
M 327.1 176.85
Q 326.75 177.35 327.05 178.05
L 341.95 219.25
Q 342.25 220 343 220 343.75 220 344.1 219.3
L 354.5 196.25
Q 354.8 195.55 355.3 195.55 355.75 195.55 356.05 196.25
L 366.45 219.5
Q 366.75 220.15 367.5 220.15 368.3 220.15 368.55 219.45
L 383.7 178.05
Q 384 177.35 383.65 176.85 383.25 176.35 382.5 176.35
L 377.25 176.35
Q 376.5 176.35 375.75 176.85 375.05 177.35 374.8 178.05
L 367.25 198.65
Q 367.05 199.35 366.6 199.35 366.2 199.35 365.9 198.75
L 356.4 177.05
Q 356.05 176.4 355.25 176.4 354.45 176.4 354.15 177.05
L 344.65 198.65
Q 344.35 199.3 343.95 199.3 343.5 199.3 343.25 198.6
L 335.9 178.05
Q 335.65 177.35 334.95 176.85 334.2 176.35 333.45 176.35
L 328.25 176.35
Q 327.45 176.35 327.1 176.85
M 662.75 91.55
Q 661.9 92.4 661.9 93.65
L 661.9 157.85
Q 661.9 159.05 662.75 159.95 663.65 160.8 664.85 160.8
L 710.55 160.8
Q 711.85 160.8 712.65 159.95 713.55 159.05 713.55 157.85
L 713.55 151.7
Q 713.55 150.45 712.65 149.55 711.85 148.75 710.55 148.75
L 678.3 148.75
Q 677.05 148.75 676.2 147.9 675.35 147 675.35 145.75
L 675.35 135.2
Q 675.35 134 676.2 133.1 677.05 132.25 678.3 132.25
L 706.25 132.25
Q 707.55 132.25 708.35 131.4 709.25 130.55 709.25 129.25
L 709.25 123.05
Q 709.25 121.8 708.35 120.95 707.55 120.1 706.25 120.1
L 678.3 120.1
Q 677.05 120.1 676.2 119.2 675.35 118.4 675.35 117.1
L 675.35 105.5
Q 675.35 104.3 676.2 103.4 677.05 102.55 678.3 102.55
L 710.55 102.55
Q 711.85 102.55 712.65 101.7 713.55 100.85 713.55 99.55
L 713.55 93.65
Q 713.55 92.4 712.65 91.55 711.85 90.7 710.55 90.7
L 664.85 90.7
Q 663.65 90.7 662.75 91.55
M 586.25 93.7
Q 586.25 92.5 585.35 91.6 584.55 90.8 583.25 90.8
L 575.7 90.8
Q 574.5 90.8 573.65 91.6 572.85 92.5 572.85 93.7
L 572.85 157.85
Q 572.85 159.05 573.65 159.95 574.5 160.8 575.7 160.8
L 583.25 160.8
Q 584.55 160.8 585.35 159.95 586.25 159.05 586.25 157.85
L 586.25 93.7
M 653.45 93.05
Q 654.2 92.15 653.9 91.45 653.55 90.8 652.3 90.8
L 641.7 90.8
Q 640.4 90.8 639.1 91.45 637.75 92.15 637 93.05
L 612.7 124.05
Q 611.95 124.95 611.45 124.8 610.95 124.6 610.95 123.35
L 610.95 93.65
Q 610.95 92.4 610.05 91.55 609.2 90.7 607.95 90.7
L 600.35 90.7
Q 599.15 90.7 598.3 91.55 597.5 92.4 597.5 93.65
L 597.5 157.85
Q 597.5 159.05 598.3 159.95 599.15 160.8 600.35 160.8
L 607.95 160.8
Q 609.2 160.8 610.05 159.95 610.95 159.05 610.95 157.85
L 610.95 131.9
Q 610.95 130.65 611.5 130.4 612.05 130.15 612.85 131
L 638.3 158.6
Q 639.1 159.55 640.5 160.2 641.95 160.8 643.2 160.8
L 655.1 160.8
Q 656.3 160.8 656.55 160.2 656.85 159.55 656.05 158.7
L 628.45 129.1
Q 627.6 128.25 627.55 126.95 627.5 125.65 628.25 124.7
L 653.45 93.05
M 511.15 91.55
Q 510.3 92.4 510.3 93.65
L 510.3 157.85
Q 510.3 159.05 511.15 159.95 512.05 160.8 513.25 160.8
L 542.7 160.8 547.1 160.5 551.2 159.7
Q 555.25 158.8 558.15 156.3 561 154 562.8 149.9 564.55 145.9 564.55 140.15 564.55 136.85 563.25 134.1 562.05 131.2 559.95 129 557.95 126.7 555.4 125.45
L 552.95 124.5
Q 552.25 124.3 551.8 124.1 552 123.8 552.65 123.6
L 554.85 122.5
Q 557.05 121.15 558.5 119.1 559.85 117.2 560.8 114.75 561.7 112.35 561.7 110.15 561.7 104 560.05 100.45 558.5 96.6 555.65 94.5 553.05 92.4 549.1 91.45
L 545.25 90.85 513.25 90.7
Q 512.05 90.7 511.15 91.55
M 548.25 110.4
L 547.8 113.55
Q 547.2 115.3 546.25 116.45 545.05 117.75 543.75 118.45 542.2 119.2 540.2 119.2
L 526.7 119.2
Q 525.45 119.2 524.6 118.4 523.75 117.5 523.75 116.25
L 523.75 105.5
Q 523.75 104.3 524.6 103.4 525.45 102.55 526.7 102.55
L 541.15 102.55
Q 542.7 102.55 543.95 103.2
L 546.15 104.95
Q 547 105.8 547.7 107.45 548.25 108.9 548.25 110.4
M 541.25 131.1
Q 543.65 131.1 545.45 131.7 547.25 132.3 548.55 133.5 551.1 136 551.1 139.4 551.1 141.35 550.45 142.8 549.9 144.45 548.65 145.9 547.35 147.4 545.95 148.1 544.5 148.9 542.7 148.9
L 526.7 148.9
Q 525.45 148.9 524.6 148.1 523.75 147.2 523.75 145.95
L 523.75 134.1
Q 523.75 132.85 524.6 132 525.45 131.1 526.7 131.1
L 541.25 131.1
M 425 91.55
Q 424.15 92.4 424.15 93.65
L 424.15 157.85
Q 424.15 159.05 425 159.95 425.9 160.8 427.1 160.8
L 472.8 160.8
Q 474.1 160.8 474.9 159.95 475.8 159.05 475.8 157.85
L 475.8 151.7
Q 475.8 150.45 474.9 149.55 474.1 148.75 472.8 148.75
L 440.55 148.75
Q 439.3 148.75 438.45 147.9 437.6 147 437.6 145.75
L 437.6 135.2
Q 437.6 134 438.45 133.1 439.3 132.25 440.55 132.25
L 468.5 132.25
Q 469.8 132.25 470.6 131.4 471.5 130.55 471.5 129.25
L 471.5 123.05
Q 471.5 121.8 470.6 120.95 469.8 120.1 468.5 120.1
L 440.55 120.1
Q 439.3 120.1 438.45 119.2 437.6 118.4 437.6 117.1
L 437.6 105.5
Q 437.6 104.3 438.45 103.4 439.3 102.55 440.55 102.55
L 472.8 102.55
Q 474.1 102.55 474.9 101.7 475.8 100.85 475.8 99.55
L 475.8 93.65
Q 475.8 92.4 474.9 91.55 474.1 90.7 472.8 90.7
L 427.1 90.7
Q 425.9 90.7 425 91.55
M 414.05 91.6
Q 413.15 90.8 411.9 90.8
L 404.45 90.8
Q 403.2 90.8 402.35 91.6 401.45 92.5 401.45 93.7
L 401.45 132.45
Q 401.45 137.7 399.7 141.15 398.05 144.6 395.4 146.65 392.95 148.75 390 149.4 386.9 150.2 384.8 150.2
L 382.35 150 379.5 149.4
Q 376.75 148.75 374.1 146.65 371.55 144.5 369.85 141.15 368.15 137.7 368.15 132.45
L 368.15 93.7
Q 368.15 92.5 367.25 91.6 366.4 90.8 365.15 90.8
L 357.55 90.8
Q 356.45 90.8 355.55 91.6 354.7 92.5 354.7 93.7
L 354.7 132.55
Q 354.7 139.35 356.85 144.7 357.85 147.4 359.4 149.75 360.95 152.1 362.95 154 366.7 157.7 372.45 159.95 375.1 161 378.2 161.5
L 384.8 162.05 391.4 161.5
Q 394.55 161 397.25 159.95 402.9 157.7 406.75 154 410.65 150.1 412.75 144.7 413.8 141.95 414.35 138.9
L 414.85 132.55 414.85 93.7
Q 414.85 92.5 414.05 91.6
M 352.3 151.9
Q 352.3 150.65 351.45 149.75 350.55 148.9 349.35 148.9
L 318.2 148.9
Q 316.95 148.9 316.1 148.1 315.25 147.2 315.25 145.95
L 315.25 93.65
Q 315.25 92.4 314.35 91.55 313.5 90.7 312.25 90.7
L 304.75 90.7
Q 303.55 90.7 302.65 91.55 301.8 92.4 301.8 93.65
L 301.8 157.85
Q 301.8 159.05 302.65 159.95 303.55 160.8 304.75 160.8
L 349.35 160.8
Q 350.55 160.8 351.45 159.95 352.3 159.05 352.3 157.85
L 352.3 151.9
M 276.15 90.85
L 244.15 90.7
Q 242.95 90.7 242.05 91.55 241.2 92.4 241.2 93.65
L 241.2 157.85
Q 241.2 159.05 242.05 159.95 242.95 160.8 244.15 160.8
L 273.6 160.8 278 160.5 282.1 159.7
Q 286.15 158.8 289.05 156.3 291.9 154 293.7 149.9 295.45 145.9 295.45 140.15 295.45 136.85 294.15 134.1 292.95 131.2 290.85 129 288.85 126.7 286.3 125.45
L 283.85 124.5
Q 283.15 124.3 282.7 124.1 282.9 123.8 283.55 123.6
L 285.75 122.5
Q 287.95 121.15 289.4 119.1 290.75 117.2 291.7 114.75 292.6 112.35 292.6 110.15 292.6 104 290.95 100.45 289.4 96.6 286.55 94.5 283.95 92.4 280 91.45
L 276.15 90.85
M 274.65 118.45
Q 273.1 119.2 271.1 119.2
L 257.6 119.2
Q 256.35 119.2 255.5 118.4 254.65 117.5 254.65 116.25
L 254.65 105.5
Q 254.65 104.3 255.5 103.4 256.35 102.55 257.6 102.55
L 272.05 102.55
Q 273.6 102.55 274.85 103.2
L 277.05 104.95
Q 277.9 105.8 278.6 107.45 279.15 108.9 279.15 110.4
L 278.7 113.55
Q 278.1 115.3 277.15 116.45 275.95 117.75 274.65 118.45
M 255.5 132
Q 256.35 131.1 257.6 131.1
L 272.15 131.1
Q 274.55 131.1 276.35 131.7 278.15 132.3 279.45 133.5 282 136 282 139.4 282 141.35 281.35 142.8 280.8 144.45 279.55 145.9 278.25 147.4 276.85 148.1 275.4 148.9 273.6 148.9
L 257.6 148.9
Q 256.35 148.9 255.5 148.1 254.65 147.2 254.65 145.95
L 254.65 134.1
Q 254.65 132.85 255.5 132 Z"/>
</g>

<path id="Layer0_0_1_STROKES" stroke="#0099FF" stroke-width="14" stroke-linejoin="round" stroke-linecap="round" fill="none" d="
M 110.05 120.75
L 92.6 75.3 128.55 74.75
M 133.7 181.85
L 126.575 163.25"/>

<path id="Layer0_0_2_STROKES" stroke="#0099FF" stroke-width="12" stroke-linejoin="miter" stroke-linecap="butt" stroke-miterlimit="3" fill="none" d="
M 204.95 180.55
Q 204.95 209.95 184.15 230.7 163.4 251.5 133.95 251.5
L 129 251.5
Q 99.55 251.5 78.75 230.7 58 209.95 58 180.55
L 58 132 58 51.45 204.95 51.45 204.95 180.55 Z"/>

<path id="Layer0_0_3_STROKES" stroke="#0099FF" stroke-width="14" stroke-linejoin="round" stroke-linecap="square" fill="none" d="
M 128.55 74.75
Q 134.6 74.65 138.95 78.85 143.3 83.15 143.35 89.2 143.45 95.2 139.25 99.6 136.5 102.4 132.95 103.45"/>

<path id="Layer0_0_4_STROKES" stroke="#0099FF" stroke-width="14" stroke-linejoin="round" stroke-linecap="butt" fill="none" d="
M 121.75 132.65
Q 123.0412109375 132.128125 124 131.975 127.78828125 131.35 131.85 131.35 151.1 131.35 164.7 144.95 178.25 158.55 178.25 177.75 178.25 197 164.7 210.6 151.1 224.15 131.85 224.15 112.65 224.15 99.05 210.6 85.45 197 85.45 177.75 85.45 158.55 99.05 144.95 101.5486328125 142.4513671875 104.25 140.425 106.4337890625 138.7689453125 109.5 137.5
M 113.15 128.75
L 110.05 120.75
M 126.575 163.25
L 118 140.9
M 58 132
L 105.9 113.6"/>
</defs>

<g transform="matrix( 1, 0, 0, 1, 0,0) ">
<use xlink:href="#Layer0_0_FILL"/>

<use xlink:href="#Layer0_0_1_STROKES"/>

<use xlink:href="#Layer0_0_2_STROKES"/>

<use xlink:href="#Layer0_0_3_STROKES"/>

<use xlink:href="#Layer0_0_4_STROKES"/>
</g>
</svg>

<?xml version="1.0" encoding="UTF-8" standalone="no"?>
<!-- Generator: Adobe Illustrator 19.2.1, SVG Export Plug-In . SVG Version: 6.00 Build 0)  -->

<svg
   xmlns:dc="http://purl.org/dc/elements/1.1/"
   xmlns:cc="http://creativecommons.org/ns#"
   xmlns:rdf="http://www.w3.org/1999/02/22-rdf-syntax-ns#"
   xmlns:svg="http://www.w3.org/2000/svg"
   xmlns="http://www.w3.org/2000/svg"
   xmlns:sodipodi="http://sodipodi.sourceforge.net/DTD/sodipodi-0.dtd"
   xmlns:inkscape="http://www.inkscape.org/namespaces/inkscape"
   version="1.1"
   id="Layer_1"
   x="0px"
   y="0px"
   viewBox="0 0 194 297"
   xml:space="preserve"
   inkscape:version="0.48.4 r9939"
   width="100%"
   height="100%"
   sodipodi:docname="asset-bike.svg"><metadata
     id="metadata47"><rdf:RDF><cc:Work
         rdf:about=""><dc:format>image/svg+xml</dc:format><dc:type
           rdf:resource="http://purl.org/dc/dcmitype/StillImage" /><dc:title></dc:title></cc:Work></rdf:RDF></metadata><defs
     id="defs45" /><sodipodi:namedview
     pagecolor="#ffffff"
     bordercolor="#666666"
     borderopacity="1"
     objecttolerance="10"
     gridtolerance="10"
     guidetolerance="10"
     inkscape:pageopacity="0"
     inkscape:pageshadow="2"
     inkscape:window-width="640"
     inkscape:window-height="480"
     id="namedview43"
     showgrid="false"
     inkscape:zoom="1.4896383"
     inkscape:cx="146.54562"
     inkscape:cy="155.43019"
     inkscape:window-x="0"
     inkscape:window-y="27"
     inkscape:window-maximized="0"
     inkscape:current-layer="Layer_1"
     inkscape:snap-bbox="true" /><style
     type="text/css"
     id="style3">
	.st0{fill:none;stroke:#0099FF;stroke-width:14;stroke-linecap:round;stroke-linejoin:round;}
	.st1{fill:none;stroke:#0099FF;stroke-width:12;stroke-miterlimit:3;}
	.st2{fill:none;stroke:#0099FF;stroke-width:14;stroke-linecap:square;stroke-linejoin:round;}
	.st3{fill:none;stroke:#0099FF;stroke-width:14;stroke-linejoin:round;}
	.st4{font-family:'GeometosRounded';}
	.st5{font-size:95.7947px;}
	.st6{letter-spacing:-7;}
	.st7{font-size:59.8717px;}
</style><g
     id="g5"
     transform="translate(-34.177215,-3)"><g
       id="g7"><path
         id="Layer0_0_1_STROKES"
         class="st0"
         d="m 110.1,120.8 -17.5,-45.5 36,-0.6 m 5.1,107.2 -7.1,-18.6"
         inkscape:connector-curvature="0"
         style="fill:none;stroke:#0099ff;stroke-width:14;stroke-linecap:round;stroke-linejoin:round" /></g><g
       id="g10"><path
         id="Layer0_0_2_STROKES"
         class="st1"
         d="m 204.9,180.6 c 0,19.6 -6.9,36.3 -20.8,50.1 -13.8,13.9 -30.6,20.8 -50.2,20.8 H 129 c -19.6,0 -36.4,-6.9 -50.2,-20.8 C 64.9,216.9 58,200.2 58,180.6 V 132 51.5 h 146.9 v 129.1 z"
         inkscape:connector-curvature="0"
         style="fill:none;stroke:#0099ff;stroke-width:12;stroke-miterlimit:3" /></g><g
       id="g13"><path
         id="Layer0_0_3_STROKES"
         class="st2"
         d="m 128.6,74.8 c 4,-0.1 7.5,1.3 10.4,4.1 2.9,2.9 4.4,6.3 4.4,10.3 0.1,4 -1.3,7.5 -4.1,10.4 -1.8,1.9 -3.9,3.2 -6.3,3.8"
         inkscape:connector-curvature="0"
         style="fill:none;stroke:#0099ff;stroke-width:14;stroke-linecap:square;stroke-linejoin:round" /></g><g
       id="g16"><path
         id="Layer0_0_4_STROKES"
         class="st3"
         d="m 121.8,132.6 c 0.9,-0.3 1.6,-0.6 2.2,-0.7 2.5,-0.4 5.1,-0.6 7.9,-0.6 12.8,0 23.8,4.5 32.8,13.6 9,9.1 13.6,20 13.6,32.8 0,12.8 -4.5,23.8 -13.6,32.9 -9.1,9 -20,13.5 -32.8,13.5 -12.8,0 -23.7,-4.5 -32.8,-13.5 -9.1,-9.1 -13.6,-20 -13.6,-32.9 0,-12.8 4.5,-23.7 13.6,-32.8 1.7,-1.7 3.4,-3.2 5.2,-4.5 1.5,-1.1 3.2,-2.1 5.2,-2.9 m 3.7,-8.7 -3.1,-8 m 16.5,42.4 -8.6,-22.4 M 58,132 105.9,113.6"
         inkscape:connector-curvature="0"
         style="fill:none;stroke:#0099ff;stroke-width:14;stroke-linejoin:round" /></g></g></svg>
